X:16
T:Wally MacLeod's
R:jig
C:Paul S. Cranford
O:Cape Breton Island
S:http://www.cranfordpub.com
D:currently unrecorded
B:currently unpublished in book form
Z:psc, (re-formatted,updated 9/17/04)
N:
H:                                                        copyrights Cranford Publications, SOCAN
L:1/8
M:6/8
Q:300
K:A
z|ABA c2 A|def e2 c|agb aec|def e2 c|
ABA c2 A|def e2 c|agb aec|ABA A2:|
|:F|EFE B2 G|ABA c2 A|def ecA|1GBB B2 F|
EFE B2 G|ABA c2 A|def e2 c|ABA A2:|
[2GBB B2 c|ABA c2 A|def e2 c|agb aec|ABA A2|]
